icons/lines/quote-up.svg

<svg xmlns="http://www.w3.org/2000/svg" width="24" height="24" viewBox="0 0 24 24" fill="none" stroke="currentColor" stroke-width="2" stroke-linecap="round" stroke-linejoin="round" >
  <path d="M2 12.35H7.79999C9.32999 12.35 10.38 13.51 10.38 14.93V18.15C10.38 19.57 9.32999 20.73 7.79999 20.73H4.58002C3.16002 20.73 2 19.57 2 18.15V12.35"/>
  <path d="M2 12.35C2 6.29998 3.13003 5.30003 6.53003 3.28003"/>
  <path d="M13.6299 12.35H19.4299C20.9599 12.35 22.0099 13.51 22.0099 14.93V18.15C22.0099 19.57 20.9599 20.73 19.4299 20.73H16.2099C14.7899 20.73 13.6299 19.57 13.6299 18.15V12.35"/>
  <path d="M13.6299 12.35C13.6299 6.29998 14.7599 5.30003 18.1599 3.28003"/>
  </svg>

<svg xmlns="http://www.w3.org/2000/svg" width="24" height="24" viewBox="0 0 24 24" fill="none" stroke="currentColor" stroke-width="2" stroke-linecap="round" stroke-linejoin="round">
  <path d="M13.63 12.35c0-6.05 1.13-7.05 4.53-9.07" />
  <path d="M13.63 12.35h5.8c1.53 0 2.58 1.16 2.58 2.58v3.22c0 1.42-1.05 2.58-2.58 2.58h-3.22a2.586 2.586 0 0 1-2.58-2.58z" />
  <path d="M2 12.35C2 6.3 3.13 5.3 6.53 3.28" />
  <path d="M2 12.35h5.8c1.53 0 2.58 1.16 2.58 2.58v3.22c0 1.42-1.05 2.58-2.58 2.58H4.58A2.586 2.586 0 0 1 2 18.15z" />
</svg>
